**harm	**harte	**kern	**silbe	**rhyme	**timestamp	**phrase	**leadinstrument
*M4/4	*M4/4	*ICvox	*	*	*	*	*
*	*	*VRlead	*	*	*	*	*
*	*	*Hstimme	*	*	*	*	*
*E:	*E:	*E:	*	*	*	*	*
*	*	*M4/4	*	*	*	*	*
*	*	*clefG2	*	*	*	*	*
1r;	N	r;	.	.	0	.	r
=1	=1	=1	=1	=1	=1	=1	=1
*>Letter>A	*>Letter>A	*>Letter>A	*>Letter>A	*>Letter>A	*>Letter>A	*>Letter>A	*>Letter>A
*>Label>Intro	*>Label>Intro	*>Label>Intro	*>Label>Intro	*>Label>Intro	*>Label>Intro	*>Label>Intro	*>Label>Intro
1I	E:maj	1r	.	.	0.18	newline	.
=2	=2	=2	=2	=2	=2	=2	=2
1I	E:maj	1r	.	.	1.922	.	.
=3	=3	=3	=3	=3	=3	=3	=3
1I	E:maj	1r	.	.	3.664	.	.
=4	=4	=4	=4	=4	=4	=4	=4
1I	E:maj	1r	.	.	5.406	.	.
=5	=5	=5	=5	=5	=5	=5	=5
1I	E:maj	1r	.	.	7.149	.	.
=6	=6	=6	=6	=6	=6	=6	=6
1I	E:maj	1r	.	.	8.891	.	.
=7	=7	=7	=7	=7	=7	=7	=7
1I	E:maj	1r	.	.	10.633	.	.
=8	=8	=8	=8	=8	=8	=8	=8
1I	E:maj	1r	.	.	12.375	.	.
=9	=9	=9	=9	=9	=9	=9	=9
*>Letter>B	*>Letter>B	*>Letter>B	*>Letter>B	*>Letter>B	*>Letter>B	*>Letter>B	*>Letter>B
*>Label>Verse	*>Label>Verse	*>Label>Verse	*>Label>Verse	*>Label>Verse	*>Label>Verse	*>Label>Verse	*>Label>Verse
1I	E:maj	8E	Get	.	14.118	newline	voice
.	.	8E	your	.	.	.	.
.	.	8E	mo-	.	.	.	.
.	.	8E	-tor	.	.	.	.
.	.	4G	run-	.	.	.	.
.	.	[4E	-nin'	.	.	.	.
=10	=10	=10	=10	=10	=10	=10	=10
1Im7	E:7(#9)	4E]	_	.	15.762	.	voice
.	.	4r	.	.	.	.	.
.	.	2r	.	.	.	.	.
=11	=11	=11	=11	=11	=11	=11	=11
1I	E:maj	8d	Head	.	17.406	.	voice
.	.	8d	out	.	.	.	.
.	.	8d	on	.	.	.	.
.	.	8d	the	.	.	.	.
.	.	4e	high-	(A	.	.	.
.	.	4e	-way	a)	.	.	.
=12	=12	=12	=12	=12	=12	=12	=12
1Im7	E:7(#9)	1r	.	.	19.051	.	voice
=13	=13	=13	=13	=13	=13	=13	=13
1I	E:maj	8E	Look-	.	20.695	.	voice
.	.	8E	-in'	.	.	.	.
.	.	8G	for	.	.	.	.
.	.	8E	ad-	.	.	.	.
.	.	4A	-ven-	.	.	.	.
.	.	[4G	-ture	.	.	.	.
=14	=14	=14	=14	=14	=14	=14	=14
1Im7	E:7(#9)	4G]	_	.	22.339	.	voice
.	.	4r	.	.	.	.	.
.	.	4r	.	.	.	.	.
.	.	8B	and	.	.	.	.
.	.	8d	what	.	.	.	.
=15	=15	=15	=15	=15	=15	=15	=15
1I	E:maj	8e	e-	.	23.983	.	voice
.	.	8e	-ver	.	.	.	.
.	.	8.e	comes	.	.	.	.
.	.	8.e	our	(A	.	.	.
.	.	16A	way	a)	.	.	.
.	.	16A-	_	.	.	.	.
.	.	[4G	_	.	.	.	.
=16	=16	=16	=16	=16	=16	=16	=16
1Im7	E:7(#9)	4G]	_	.	25.628	.	voice
.	.	4r	.	.	.	.	.
.	.	2r	.	.	.	.	.
=17	=17	=17	=17	=17	=17	=17	=17
*>Letter>C	*>Letter>C	*>Letter>C	*>Letter>C	*>Letter>C	*>Letter>C	*>Letter>C	*>Letter>C
*>Label>Bridge	*>Label>Bridge	*>Label>Bridge	*>Label>Bridge	*>Label>Bridge	*>Label>Bridge	*>Label>Bridge	*>Label>Bridge
2-III	G:maj	4r	.	.	27.272	newline	.
.	.	4g	Yeah	.	.	.	.
2IV	A:maj	8f#	dar-	.	28.111	.	.
.	.	8e	-lin'	.	.	.	.
.	.	8e	go	.	.	.	.
.	.	8e	and	.	.	.	.
=18	=18	=18	=18	=18	=18	=18	=18
1I	E:maj	8e	make	.	28.949	.	.
.	.	8d	_	.	.	.	.
.	.	8d	it	.	.	.	.
.	.	4d	ha-	.	.	.	.
.	.	4.e	-ppen	.	.	.	.
=19	=19	=19	=19	=19	=19	=19	=19
2-III	G:maj	4r	.	.	30.627	.	.
.	.	8d	Take	.	.	.	.
.	.	8d	the	.	.	.	.
2IV	A:maj	4c#	world	.	31.466	.	.
.	.	8c#	in	.	.	.	.
.	.	8c#	a	.	.	.	.
=20	=20	=20	=20	=20	=20	=20	=20
1I	E:maj	8c#	love	.	32.305	.	.
.	.	4B	em-	.	.	.	.
.	.	4.B	-brace	B	.	.	.
.	.	4r	.	.	.	.	.
=21	=21	=21	=21	=21	=21	=21	=21
2-III	G:maj	4r	.	.	33.982	.	.
.	.	4d	Fire	.	.	.	.
2IV	A:maj	8c#	all	.	34.821	.	.
.	.	8B	of	.	.	.	.
.	.	8A	your	.	.	.	.
.	.	[8B	guns	C	.	.	.
=22	=22	=22	=22	=22	=22	=22	=22
1I	E:maj	4B]	_	.	35.66	.	.
.	.	8E	at	.	.	.	.
.	.	4G	once	C	.	.	.
.	.	4.A	and	.	.	.	.
=23	=23	=23	=23	=23	=23	=23	=23
2-III	G:maj	4r	.	.	37.338	.	.
.	.	4d	ex-	.	.	.	.
2IV	A:maj	8c#	-plode	.	38.177	.	.
.	.	8B	in-	.	.	.	.
.	.	8A	-to	.	.	.	.
.	.	8B	space	B	.	.	.
=24	=24	=24	=24	=24	=24	=24	=24
1I	E:maj	4B-	_	.	39.015	.	.
.	.	4.B	_	.	.	.	.
.	.	8r	.	.	.	.	.
.	.	4r	.	.	.	.	.
=25	=25	=25	=25	=25	=25	=25	=25
*>Letter>B	*>Letter>B	*>Letter>B	*>Letter>B	*>Letter>B	*>Letter>B	*>Letter>B	*>Letter>B
*>Label>Verse	*>Label>Verse	*>Label>Verse	*>Label>Verse	*>Label>Verse	*>Label>Verse	*>Label>Verse	*>Label>Verse
1I	E:maj	8E	I	.	40.693	newline	.
.	.	8E	like	.	.	.	.
.	.	8E	smoke	.	.	.	.
.	.	8E	and	.	.	.	.
.	.	4G	light-	.	.	.	.
.	.	[4E	-nin'	.	.	.	.
=26	=26	=26	=26	=26	=26	=26	=26
1Im7	E:7(#9)	4E]	_	.	42.334	.	.
.	.	4r	.	.	.	.	.
.	.	2r	.	.	.	.	.
=27	=27	=27	=27	=27	=27	=27	=27
1I	E:maj	8d	Heav-	.	43.976	.	.
.	.	8d	-y	.	.	.	.
.	.	8d	me-	.	.	.	.
.	.	8d	-tal	.	.	.	.
.	.	4e	thun-	(D	.	.	.
.	.	4e	-der	d)	.	.	.
=28	=28	=28	=28	=28	=28	=28	=28
1Im7	E:7(#9)	1r	.	.	45.617	.	.
=29	=29	=29	=29	=29	=29	=29	=29
1I	E:maj	8E	Rac-	.	47.258	.	.
.	.	8E	-in'	.	.	.	.
.	.	8G	with	.	.	.	.
.	.	8E	the	.	.	.	.
.	.	4A	wind	.	.	.	.
.	.	[4G	_	.	.	.	.
=30	=30	=30	=30	=30	=30	=30	=30
1Im7	E:7(#9)	4G]	_	.	48.9	.	.
.	.	4r	.	.	.	.	.
.	.	4r	.	.	.	.	.
.	.	8B	and	.	.	.	.
.	.	8d	the	.	.	.	.
=31	=31	=31	=31	=31	=31	=31	=31
1I	E:maj	8e	feel-	.	50.541	.	.
.	.	8e	-in'	.	.	.	.
.	.	8e	that	.	.	.	.
.	.	8e	I'm	.	.	.	.
.	.	4G	un-	(D	.	.	.
.	.	[4E	-der	d)	.	.	.
=32	=32	=32	=32	=32	=32	=32	=32
1Im7	E:7(#9)	4E]	_	.	52.182	.	.
.	.	4r	.	.	.	.	.
.	.	2r	.	.	.	.	.
=33	=33	=33	=33	=33	=33	=33	=33
*>Letter>C	*>Letter>C	*>Letter>C	*>Letter>C	*>Letter>C	*>Letter>C	*>Letter>C	*>Letter>C
*>Label>Bridge	*>Label>Bridge	*>Label>Bridge	*>Label>Bridge	*>Label>Bridge	*>Label>Bridge	*>Label>Bridge	*>Label>Bridge
2-III	G:maj	4r	.	.	53.824	newline	.
.	.	4g	Yeah	.	.	.	.
2IV	A:maj	8f#	dar-	.	54.66	.	.
.	.	8e	-lin'	.	.	.	.
.	.	8e	go	.	.	.	.
.	.	8e	and	.	.	.	.
=34	=34	=34	=34	=34	=34	=34	=34
1I	E:maj	8e	make	.	55.497	.	.
.	.	8d	_	.	.	.	.
.	.	8d	it	.	.	.	.
.	.	4d	ha-	.	.	.	.
.	.	4.e	-ppen	.	.	.	.
=35	=35	=35	=35	=35	=35	=35	=35
2-III	G:maj	4r	.	.	57.17	.	.
.	.	8d	Take	.	.	.	.
.	.	8d	the	.	.	.	.
2IV	A:maj	4c#	world	.	58.007	.	.
.	.	8c#	in	.	.	.	.
.	.	8c#	a	.	.	.	.
=36	=36	=36	=36	=36	=36	=36	=36
1I	E:maj	8c#	love	.	58.844	.	.
.	.	4B	em-	.	.	.	.
.	.	4.B	-brace	B	.	.	.
.	.	4r	.	.	.	.	.
=37	=37	=37	=37	=37	=37	=37	=37
2-III	G:maj	4r	.	.	60.517	.	.
.	.	4d	Fire	.	.	.	.
2IV	A:maj	8c#	all	.	61.354	.	.
.	.	8B	of	.	.	.	.
.	.	8A	your	.	.	.	.
.	.	[8B	guns	C	.	.	.
=38	=38	=38	=38	=38	=38	=38	=38
1I	E:maj	4B]	_	.	62.19	.	.
.	.	8E	at	.	.	.	.
.	.	4G	once	C	.	.	.
.	.	4.A	and	.	.	.	.
=39	=39	=39	=39	=39	=39	=39	=39
2-III	G:maj	4r	.	.	63.864	.	.
.	.	4d	ex-	.	.	.	.
2IV	A:maj	8c#	-plode	.	64.7	.	.
.	.	8B	in-	.	.	.	.
.	.	8A	-to	.	.	.	.
.	.	8B	space	B	.	.	.
=40	=40	=40	=40	=40	=40	=40	=40
1I	E:maj	4B-	_	.	65.537	.	.
.	.	4.B	_	.	.	.	.
.	.	8r	.	.	.	.	.
.	.	8B	Like	.	.	.	.
.	.	8B	a	.	.	.	.
=41	=41	=41	=41	=41	=41	=41	=41
*>Letter>D	*>Letter>D	*>Letter>D	*>Letter>D	*>Letter>D	*>Letter>D	*>Letter>D	*>Letter>D
*>Label>Chorus	*>Label>Chorus	*>Label>Chorus	*>Label>Chorus	*>Label>Chorus	*>Label>Chorus	*>Label>Chorus	*>Label>Chorus
1I	E:maj	4e	true	.	67.21	newline	.
.	.	4r	.	.	.	.	.
.	.	4e	nat-	.	.	.	.
.	.	8e	-ure's	.	.	.	.
.	.	8e	child	E	.	.	.
=42	=42	=42	=42	=42	=42	=42	=42
1I	E:maj	16d	_	.	68.87	.	.
.	.	16c#	_	.	.	.	.
.	.	4.B	_	.	.	.	.
.	.	4r	.	.	.	.	.
.	.	8B	we	.	.	.	.
.	.	8d	were	.	.	.	.
=43	=43	=43	=43	=43	=43	=43	=43
1-III	G:maj	4e	born	.	70.53	.	.
.	.	4r	.	.	.	.	.
.	.	8e	born	.	.	.	.
.	.	8e	to	.	.	.	.
.	.	8e	be	.	.	.	.
.	.	[8e	wild	E	.	.	.
=44	=44	=44	=44	=44	=44	=44	=44
1-III	G:maj	4e]	_	.	72.19	.	.
.	.	4r	.	.	.	.	.
.	.	4r	.	.	.	.	.
.	.	8B	we	.	.	.	.
.	.	8d	can	.	.	.	.
=45	=45	=45	=45	=45	=45	=45	=45
1IV	A:maj	8e	climb	.	73.85	newline	.
.	.	8c#	_	.	.	.	.
.	.	8c#	so	.	.	.	.
.	.	4e	high	F	.	.	.
.	.	8c#	_	.	.	.	.
.	.	4r	.	.	.	.	.
=46	=46	=46	=46	=46	=46	=46	=46
1-III	G:maj	8r	.	.	75.516	.	.
.	.	8B	I	.	.	.	.
.	.	8g	ne-	.	.	.	.
.	.	4f#	-ver	.	.	.	.
.	.	8r	.	.	.	.	.
.	.	8d	wan-	.	.	.	.
.	.	8e	-na	.	.	.	.
=47	=47	=47	=47	=47	=47	=47	=47
1I	E:maj	8f#	die	F	77.182	.	.
.	.	2..d	_	.	.	.	.
=48	=48	=48	=48	=48	=48	=48	=48
1I	E:maj	1r	.	.	78.849	.	.
=49	=49	=49	=49	=49	=49	=49	=49
1I	E:maj	2e	Born	.	80.515	newline	.
.	.	8e	to	.	.	.	.
.	.	4.e	be	.	.	.	.
=50	=50	=50	=50	=50	=50	=50	=50
1-VII	D:maj	4.d	wild	E	82.283	.	.
.	.	16e	_	.	.	.	.
.	.	16d	_	.	.	.	.
.	.	4c#	_	.	.	.	.
.	.	4d	_	.	.	.	.
=51	=51	=51	=51	=51	=51	=51	=51
1I	E:maj	1r	.	.	84.05	.	.
=52	=52	=52	=52	=52	=52	=52	=52
1-VII	D:maj	1r	.	.	85.818	.	.
=53	=53	=53	=53	=53	=53	=53	=53
1I	E:maj	2e	Born	.	87.586	newline	voice
.	.	8e	to	.	.	.	.
.	.	4.e	be	.	.	.	.
=54	=54	=54	=54	=54	=54	=54	=54
1-VII	D:maj	4.d	wild	E	89.212	.	voice
.	.	16e	_	.	.	.	.
.	.	16d	_	.	.	.	.
.	.	4c#	_	.	.	.	.
.	.	4d	_	.	.	.	.
=55	=55	=55	=55	=55	=55	=55	=55
1I	E:maj	1r	.	.	90.839	.	voice
=56	=56	=56	=56	=56	=56	=56	=56
1-VII	D:maj	1r	.	.	92.466	.	voice
=57	=57	=57	=57	=57	=57	=57	=57
*>Letter>A	*>Letter>A	*>Letter>A	*>Letter>A	*>Letter>A	*>Letter>A	*>Letter>A	*>Letter>A
*>Label>Interlude	*>Label>Interlude	*>Label>Interlude	*>Label>Interlude	*>Label>Interlude	*>Label>Interlude	*>Label>Interlude	*>Label>Interlude
1I	E:maj	1r	.	.	94.093	newline	.
=58	=58	=58	=58	=58	=58	=58	=58
1I	E:maj	1r	.	.	95.73	.	.
=59	=59	=59	=59	=59	=59	=59	=59
1I	E:maj	1r	.	.	97.367	.	.
=60	=60	=60	=60	=60	=60	=60	=60
1I	E:maj	1r	.	.	99.005	.	.
=61	=61	=61	=61	=61	=61	=61	=61
1I	E:maj	1r	.	.	100.642	.	.
=62	=62	=62	=62	=62	=62	=62	=62
1I	E:maj	1r	.	.	102.279	.	.
=63	=63	=63	=63	=63	=63	=63	=63
1I	E:maj	1r	.	.	103.917	.	.
=64	=64	=64	=64	=64	=64	=64	=64
1I	E:maj	1r	.	.	105.554	.	.
=65	=65	=65	=65	=65	=65	=65	=65
1I	E:maj	1r	.	.	107.191	.	.
=66	=66	=66	=66	=66	=66	=66	=66
1I	E:maj	1r	.	.	108.829	.	.
=67	=67	=67	=67	=67	=67	=67	=67
1I	E:maj	1r	.	.	110.466	.	.
=68	=68	=68	=68	=68	=68	=68	=68
1I	E:maj	1r	.	.	112.103	.	.
=69	=69	=69	=69	=69	=69	=69	=69
1I	E:maj	1r	.	.	113.74	.	.
=70	=70	=70	=70	=70	=70	=70	=70
1I	E:maj	1r	.	.	115.378	.	.
=71	=71	=71	=71	=71	=71	=71	=71
1I	E:maj	1r	.	.	117.015	.	.
=72	=72	=72	=72	=72	=72	=72	=72
1I	E:maj	1r	.	.	118.652	.	.
=73	=73	=73	=73	=73	=73	=73	=73
1I	E:maj	1r	.	.	120.29	.	.
=74	=74	=74	=74	=74	=74	=74	=74
1I	E:maj	1r	.	.	121.927	.	.
=75	=75	=75	=75	=75	=75	=75	=75
1I	E:maj	1r	.	.	123.564	.	.
=76	=76	=76	=76	=76	=76	=76	=76
1I	E:maj	1r	.	.	125.202	.	.
=77	=77	=77	=77	=77	=77	=77	=77
1r	N	1r	.	.	126.839	newline	drums
=78	=78	=78	=78	=78	=78	=78	=78
1r	N	1r	.	.	128.493	.	drums
=79	=79	=79	=79	=79	=79	=79	=79
*>Letter>B	*>Letter>B	*>Letter>B	*>Letter>B	*>Letter>B	*>Letter>B	*>Letter>B	*>Letter>B
*>Label>Verse	*>Label>Verse	*>Label>Verse	*>Label>Verse	*>Label>Verse	*>Label>Verse	*>Label>Verse	*>Label>Verse
1I	E:maj	8E	Get	.	130.148	newline	voice
.	.	8E	your	.	.	.	.
.	.	8E	mo-	.	.	.	.
.	.	8E	-tor	.	.	.	.
.	.	4G	run-	.	.	.	.
.	.	[4E	-nin'	.	.	.	.
=80	=80	=80	=80	=80	=80	=80	=80
1Im7	E:7(#9)	4E]	_	.	131.795	.	voice
.	.	4r	.	.	.	.	.
.	.	2r	.	.	.	.	.
=81	=81	=81	=81	=81	=81	=81	=81
1I	E:maj	8d	Head	.	133.442	.	voice
.	.	8d	out	.	.	.	.
.	.	8d	on	.	.	.	.
.	.	8d	the	.	.	.	.
.	.	4e	high-	(A	.	.	.
.	.	4e	-way	a)	.	.	.
=82	=82	=82	=82	=82	=82	=82	=82
1Im7	E:7(#9)	1r	.	.	135.089	.	voice
=83	=83	=83	=83	=83	=83	=83	=83
1I	E:maj	8E	Look-	.	136.736	.	voice
.	.	8E	-in'	.	.	.	.
.	.	8G	for	.	.	.	.
.	.	8E	ad-	.	.	.	.
.	.	4A	-ven-	.	.	.	.
.	.	[4G	-ture	.	.	.	.
=84	=84	=84	=84	=84	=84	=84	=84
1Im7	E:7(#9)	4G]	_	.	138.383	.	voice
.	.	4r	.	.	.	.	.
.	.	4r	.	.	.	.	.
.	.	8B	and	.	.	.	.
.	.	8d	what	.	.	.	.
=85	=85	=85	=85	=85	=85	=85	=85
1I	E:maj	8e	e-	.	140.03	.	voice
.	.	8e	-ver	.	.	.	.
.	.	8.e	comes	.	.	.	.
.	.	8.e	are	(A	.	.	.
.	.	16A	way	a)	.	.	.
.	.	16A-	_	.	.	.	.
.	.	[4G	_	.	.	.	.
=86	=86	=86	=86	=86	=86	=86	=86
1Im7	E:7(#9)	4G]	_	.	141.677	.	voice
.	.	4r	.	.	.	.	.
.	.	2r	.	.	.	.	.
=87	=87	=87	=87	=87	=87	=87	=87
2-III	G:maj	4r	.	.	143.324	newline	.
.	.	4g	Yeah	.	.	.	.
2IV	A:maj	8f#	dar-	.	144.143	.	.
.	.	8e	-lin'	.	.	.	.
.	.	8e	go	.	.	.	.
.	.	8e	and	.	.	.	.
=88	=88	=88	=88	=88	=88	=88	=88
1I	E:maj	8e	make	.	144.963	.	.
.	.	8d	_	.	.	.	.
.	.	8d	it	.	.	.	.
.	.	4d	ha-	.	.	.	.
.	.	4.e	-ppen	.	.	.	.
=89	=89	=89	=89	=89	=89	=89	=89
2-III	G:maj	4r	.	.	146.601	.	.
.	.	8d	Take	.	.	.	.
.	.	8d	the	.	.	.	.
2IV	A:maj	4c#	world	.	147.421	.	.
.	.	8c#	in	.	.	.	.
.	.	8c#	a	.	.	.	.
=90	=90	=90	=90	=90	=90	=90	=90
1I	E:maj	8c#	love	.	148.24	.	.
.	.	4B	em-	.	.	.	.
.	.	4.B	-brace	B	.	.	.
.	.	4r	.	.	.	.	.
=91	=91	=91	=91	=91	=91	=91	=91
2-III	G:maj	4r	.	.	149.878	.	.
.	.	4d	Fire	.	.	.	.
2IV	A:maj	8c#	all	.	150.698	.	.
.	.	8B	of	.	.	.	.
.	.	8A	your	.	.	.	.
.	.	[8B	guns	C	.	.	.
=92	=92	=92	=92	=92	=92	=92	=92
1I	E:maj	4B]	_	.	151.517	.	.
.	.	8E	at	.	.	.	.
.	.	4G	once	C	.	.	.
.	.	4.A	and	.	.	.	.
=93	=93	=93	=93	=93	=93	=93	=93
2-III	G:maj	4r	.	.	153.156	.	.
.	.	4d	ex-	.	.	.	.
2IV	A:maj	8c#	-plode	.	153.975	.	.
.	.	8B	in-	.	.	.	.
.	.	8A	-to	.	.	.	.
.	.	8B	space	B	.	.	.
=94	=94	=94	=94	=94	=94	=94	=94
1I	E:maj	4B-	_	.	154.794	.	.
.	.	4.B	_	.	.	.	.
.	.	8r	.	.	.	.	.
.	.	8B	Like	.	.	.	.
.	.	8B	a	.	.	.	.
=95	=95	=95	=95	=95	=95	=95	=95
*>Letter>C	*>Letter>C	*>Letter>C	*>Letter>C	*>Letter>C	*>Letter>C	*>Letter>C	*>Letter>C
*>Label>Chorus	*>Label>Chorus	*>Label>Chorus	*>Label>Chorus	*>Label>Chorus	*>Label>Chorus	*>Label>Chorus	*>Label>Chorus
1I	E:maj	4e	true	.	156.433	newline	.
.	.	4r	.	.	.	.	.
.	.	4e	nat-	.	.	.	.
.	.	8e	-ure's	.	.	.	.
.	.	8e	child	E	.	.	.
=96	=96	=96	=96	=96	=96	=96	=96
1I	E:maj	16d	_	.	158.077	.	.
.	.	16c#	_	.	.	.	.
.	.	4.B	_	.	.	.	.
.	.	4r	.	.	.	.	.
.	.	8B	we	.	.	.	.
.	.	8d	were	.	.	.	.
=97	=97	=97	=97	=97	=97	=97	=97
1-III	G:maj	4e	born	.	159.722	.	.
.	.	4r	.	.	.	.	.
.	.	8e	born	.	.	.	.
.	.	8e	to	.	.	.	.
.	.	8e	be	.	.	.	.
.	.	[8e	wild	E	.	.	.
=98	=98	=98	=98	=98	=98	=98	=98
1-III	G:maj	8e]	_	.	161.366	.	.
.	.	8r	.	.	.	.	.
.	.	4r	.	.	.	.	.
.	.	4r	.	.	.	.	.
.	.	8B	we	.	.	.	.
.	.	8d	can	.	.	.	.
=99	=99	=99	=99	=99	=99	=99	=99
1IV	A:maj	8e	climb	.	163.011	newline	.
.	.	8c#	_	.	.	.	.
.	.	8c#	so	.	.	.	.
.	.	4e	high	F	.	.	.
.	.	8c#	_	.	.	.	.
.	.	4r	.	.	.	.	.
=100	=100	=100	=100	=100	=100	=100	=100
1-III	G:maj	8r	.	.	164.703	.	.
.	.	8B	I	.	.	.	.
.	.	8g	ne-	.	.	.	.
.	.	4f#	-ver	.	.	.	.
.	.	8r	.	.	.	.	.
.	.	8d	wan-	.	.	.	.
.	.	8e	-na	.	.	.	.
=101	=101	=101	=101	=101	=101	=101	=101
1I	E:maj	8f#	die	F	166.395	.	.
.	.	2..d	_	.	.	.	.
=102	=102	=102	=102	=102	=102	=102	=102
1I	E:maj	1r	.	.	168.087	.	.
=103	=103	=103	=103	=103	=103	=103	=103
1I	E:maj	2e	Born	.	169.778	newline	.
.	.	8e	to	.	.	.	.
.	.	4.e	be	.	.	.	.
=104	=104	=104	=104	=104	=104	=104	=104
1-VII	D:maj	4.d	wild	E	171.504	.	.
.	.	16e	_	.	.	.	.
.	.	16d	_	.	.	.	.
.	.	4c#	_	.	.	.	.
.	.	4d	_	.	.	.	.
=105	=105	=105	=105	=105	=105	=105	=105
1I	E:maj	1r	.	.	173.23	.	.
=106	=106	=106	=106	=106	=106	=106	=106
1-VII	D:maj	1r	.	.	174.955	.	.
=107	=107	=107	=107	=107	=107	=107	=107
1I	E:maj	2e	Born	.	176.681	newline	.
.	.	8e	to	.	.	.	.
.	.	4.e	be	.	.	.	.
=108	=108	=108	=108	=108	=108	=108	=108
1-VII	D:maj	4.d	wild	E	178.332	.	.
.	.	16e	_	.	.	.	.
.	.	16d	_	.	.	.	.
.	.	4c#	_	.	.	.	.
.	.	4d	_	.	.	.	.
=109	=109	=109	=109	=109	=109	=109	=109
1I	E:maj	1r	.	.	179.984	.	.
=110	=110	=110	=110	=110	=110	=110	=110
1-VII	D:maj	1r	.	.	181.635	.	.
=111	=111	=111	=111	=111	=111	=111	=111
*>Letter>A	*>Letter>A	*>Letter>A	*>Letter>A	*>Letter>A	*>Letter>A	*>Letter>A	*>Letter>A
*>Label>Outro	*>Label>Outro	*>Label>Outro	*>Label>Outro	*>Label>Outro	*>Label>Outro	*>Label>Outro	*>Label>Outro
1I	E:maj	1r	.	.	183.287	newline	.
=112	=112	=112	=112	=112	=112	=112	=112
1I	E:maj	1r	.	.	184.936	.	.
=113	=113	=113	=113	=113	=113	=113	=113
1I	E:maj	1r	.	.	186.585	.	.
=114	=114	=114	=114	=114	=114	=114	=114
1I	E:maj	1r	.	.	188.234	.	.
=115	=115	=115	=115	=115	=115	=115	=115
1I	E:maj	1r	.	.	189.883	.	.
=116	=116	=116	=116	=116	=116	=116	=116
1I	E:maj	1r	.	.	191.532	.	.
=117	=117	=117	=117	=117	=117	=117	=117
1I	E:maj	1r	.	.	193.181	.	.
=118	=118	=118	=118	=118	=118	=118	=118
1I	E:maj	1r	.	.	194.83	.	.
=119	=119	=119	=119	=119	=119	=119	=119
1I	E:maj	1r	.	.	196.478	newline	fadeout
=120	=120	=120	=120	=120	=120	=120	=120
1I	E:maj	1r	.	.	198.001	.	fadeout
=121	=121	=121	=121	=121	=121	=121	=121
1I	E:maj	1r	.	.	199.523	.	fadeout
=122	=122	=122	=122	=122	=122	=122	=122
1I	E:maj	1r	.	.	201.045	.	fadeout
=123	=123	=123	=123	=123	=123	=123	=123
1I	E:maj	1r	.	.	202.567	.	fadeout
=124	=124	=124	=124	=124	=124	=124	=124
1I	E:maj	1r	.	.	204.089	.	fadeout
=125	=125	=125	=125	=125	=125	=125	=125
1I	E:maj	1r	.	.	205.611	.	fadeout
=126	=126	=126	=126	=126	=126	=126	=126
1I	E:maj	1r	.	.	207.133	.	fadeout
1r;	N	r;	.	.	208.655	.	r
1r;	N	r;	.	.	209.502	.	r
*-	*-	*-	*-	*-	*-	*-	*-
!!!BillboardChartDate: 1968/10/05
!!!BillboardPeak: 2
!!!BillboardWeeksOnChart: 13
!!!COC: Steppenwolf
!!!ENC: Nathaniel Condit-Schultz
!!!EST: Awating manual error checking and editing.
!!!OTL: Born To Be Wild
!!!RDF**harte: Chris Harte's syntax, used by MIREX
!!!RDF**harmony: **recip + pitch class of root + harmonic quality
!!!RDF**leadinstrument: original McGill primary instrumentation annotation
!!!RDF**phrase: newline = linebreak in original McGill transcription
!!!RDF**timestamp: McGill audio timestamp in seconds
!!!RDT: 2017/01/12/
!!!SampleActualRank: 23
!!!SampleID#: 0841
!!!SampleTargetRank: 22
!!!MBID: 11e0f961-d6b7-4cce-ab3f-dc0ca92a1602
